PortableApps/LibreOfficePortable/App/libreoffice/help/media/icon-themes/cmd/lc_insertcolumnsbefore.svg

<svg viewBox="0 0 24 24" xmlns="http://www.w3.org/2000/svg"><path d="m3 6v15h7v-15zm8 0v9.173828c1.168923-1.175983 3.419343-3.420375 4.574219-4.572266.406558-.332964.743778-.68063 1.375-.601562.872266-.0238715 1.586506.493588 1.894531 1.21875.308165.725491.18184 1.601236-.443359 2.210938l-1.572266 1.568359 4.144531.003906c.009362-.00013.01801.001967.027344.001953v-9.003906zm0 12.816406v2.183594h2.185547c-.826807-.826643-1.615493-1.613376-2.185547-2.183594zm5.833984.177735 1.556641 1.55664c.141334.135432.252189.288411.347656.449219h2.261719v-2.003906c-.009335-.000015-.017981.002084-.027344.001953z" fill="#fff"/><path d="m11 2v4h4v3h-4v1h4v1.175781c.177427-.176948.429212-.429586.574219-.574219.144372-.118239.282625-.231805.425781-.333984v-.267578h.949219 4.050781v3h-2.267578c-.089175.152457-.196883.297889-.332031.429688l-.572266.570312h3.171875v1.003906c.362725-.000528.699867.094936 1 .267578v-5.271484-1-3-3-1h-1-5zm5 4h5v3h-5zm-5 7v1h1.173828c.352597-.352782.620066-.618655 1.001953-1zm11 5.730469c-.299954.171832-.637495.266205-1 .265625v2.003906h-2.261719c.177677.299283.272276.636745.269531 1h1.992188c.554 0 1-.446 1-1zm-11 2.269531v1h3.185547c-.366565-.36615-.621524-.621599-1-1z" fill="#808080"/><g fill="#4d82b8"><path d="m2 2v18.5.5.5c0 .277.223.5.5.5h6.5.5.5v-.5-.5-19zm1 4h6v3h-6zm0 4h6v3h-6zm0 4h6v3h-6zm0 4h6v3h-6v-.5z"/><path d="m16.97608 11.000507c.431173-.0118.800553.263693.947402.609409s.08821.802293-.220735 1.103576l-3.29173 3.283187 6.575165.0059c.294233-.0041.580072.12096.757921.318376.177849.197417.255896.44202.255896.679725s-.07805.482309-.255896.679726c-.177849.197416-.463688.322496-.757921.318376l-6.571258-.0059 3.284007 3.279789c.213432.204519.330105.497094.316451.763714-.01365.26662-.13405.495796-.302777.664099-.168728.168303-.39593.285275-.662206.298845-.266275.01357-.558718-.101552-.763781-.31447l.0059.0078c-1.354348-1.349362-3.869061-3.864437-4.917046-4.914642-.514037-.5239-.480336-1.141229.0078-1.576259 1.055988-1.065871 3.66973-3.668076 4.905246-4.900414.181347-.185168.428604-.293605.687562-.300796z"/></g></svg>

<svg viewBox="0 0 24 24" xmlns="http://www.w3.org/2000/svg">
  <path
     style="fill:#ffffff"
     d="M 3 6 L 3 21 L 10 21 L 10 6 L 3 6 z M 11 6 L 11 15.173828 C 12.168923 13.997845 14.419343 11.753453 15.574219 10.601562 C 15.980777 10.268598 16.317997 9.920932 16.949219 10 C 17.821485 9.9761285 18.535725 10.493588 18.84375 11.21875 C 19.151915 11.944241 19.02559 12.819986 18.400391 13.429688 L 16.828125 14.998047 L 20.972656 15.001953 C 20.982018 15.001823 20.990666 15.00392 21 15.003906 L 21 6 L 11 6 z M 11 18.816406 L 11 21 L 13.185547 21 C 12.35874 20.173357 11.570054 19.386624 11 18.816406 z M 16.833984 18.994141 L 18.390625 20.550781 C 18.531959 20.686213 18.642814 20.839192 18.738281 21 L 21 21 L 21 18.996094 C 20.990665 18.996079 20.982019 18.998178 20.972656 18.998047 L 16.833984 18.994141 z "
     />
  <path
     style="fill:#808080"
     d="M 11 2 L 11 6 L 15 6 L 15 9 L 11 9 L 11 10 L 15 10 L 15 11.175781 C 15.177427 10.998833 15.429212 10.746195 15.574219 10.601562 C 15.718591 10.483323 15.856844 10.369757 16 10.267578 L 16 10 L 16.949219 10 L 21 10 L 21 13 L 18.732422 13 C 18.643247 13.152457 18.535539 13.297889 18.400391 13.429688 L 17.828125 14 L 21 14 L 21 15.003906 C 21.362725 15.003378 21.699867 15.098842 22 15.271484 L 22 10 L 22 9 L 22 6 L 22 3 L 22 2 L 21 2 L 16 2 L 11 2 z M 16 6 L 21 6 L 21 9 L 16 9 L 16 6 z M 11 13 L 11 14 L 12.173828 14 C 12.526425 13.647218 12.793894 13.381345 13.175781 13 L 11 13 z M 22 18.730469 C 21.700046 18.902301 21.362505 18.996674 21 18.996094 L 21 21 L 18.738281 21 C 18.915958 21.299283 19.010557 21.636745 19.007812 22 L 21 22 C 21.554 22 22 21.554 22 21 L 22 18.730469 z M 11 21 L 11 22 L 14.185547 22 C 13.818982 21.63385 13.564023 21.378401 13.185547 21 L 11 21 z "
     />
  <path
     style="fill:#4d82b8"
     d="M 2,2 V 20.5 21 21.5 C 2,21.777 2.223,22 2.5,22 H 9 9.5 10 V 21.5 21 2 Z M 3,6 H 9 V 9 H 3 Z m 0,4 h 6 v 3 H 3 Z m 0,4 h 6 v 3 H 3 Z m 0,4 h 6 v 3 H 3 v -0.5 z" />
  <path
     style="fill:#4d82b8"
     d="m 16.97608,11.000507 c 0.431173,-0.0118 0.800553,0.263693 0.947402,0.609409 0.146849,0.345716 0.08821,0.802293 -0.220735,1.103576 l -3.29173,3.283187 6.575165,0.0059 c 0.294233,-0.0041 0.580072,0.12096 0.757921,0.318376 0.177849,0.197417 0.255896,0.44202 0.255896,0.679725 0,0.237705 -0.07805,0.482309 -0.255896,0.679726 -0.177849,0.197416 -0.463688,0.322496 -0.757921,0.318376 l -6.571258,-0.0059 3.284007,3.279789 c 0.213432,0.204519 0.330105,0.497094 0.316451,0.763714 -0.01365,0.26662 -0.13405,0.495796 -0.302777,0.664099 -0.168728,0.168303 -0.39593,0.285275 -0.662206,0.298845 -0.266275,0.01357 -0.558718,-0.101552 -0.763781,-0.31447 l 0.0059,0.0078 c -1.354348,-1.349362 -3.869061,-3.864437 -4.917046,-4.914642 -0.514037,-0.5239 -0.480336,-1.141229 0.0078,-1.576259 1.055988,-1.065871 3.66973,-3.668076 4.905246,-4.900414 0.181347,-0.185168 0.428604,-0.293605 0.687562,-0.300796 z"
     />
</svg>
